X:344
T:Sweep's Hornpipe, The
R:hp 32 reel
H:1837
S:John Moore of Shropshire
Z:vmp.John Adams
M:4/4
L:1/8
Q:2/4=90
K:G
|:z2|G2BG E2cA|FGAF G2Bd|dcAc cBGB|ABcA GFED|
GABG ABcA|BcdB cdef|gfgd ecAF|G2G2 G2:|]
|:Bc|dBdB g2Bc|dedB G2Bd|dcAc cBGB|ABcA GFED|
GABG ABcA|BcdB cdef|gfgd ecAF|G2G2 G2:|]

